X: 145124
T: JACKY TAR
Q: "Hornpipe."
R: Hornpipe.
%R: hornpipe, reel
B: James Kerr "Merry Melodies" v.1 p.45 s.1 #24
Z: 2016 John Chambers <jc:trillian.mit.edu>
M: C
L: 1/8
K: Em
uB2 |\
e2e2 efge | d2B2 B2(dB) |\
ABde faef | d2A2 A2(Bd) |\
e2ef g2fe | dBGB d2(BA) |\
GFGE DEFA | G2E2E2 :|
|: (GA) |\
BGEG BGEG | BAGF E2(FG) |\
AFDF AFDF | AGFE D2(EF) |\
GFGE g2(fe) | dBGB d2(BA) |\
GFGE DEFA | G2E2E2 :|

%%sep 1 1 500
%%sep 1 1 500

